X: 1209
T: Adelina Schottische
C:Thomas Edward Bulch (1862-1930)
B: australian traditional tunes wiki
M:4/4
L:1/8
R: Schottische
Q: 1/4=100
K:Dmaj
V:1 
F>G|A>^G A>d B>^A B>=g | f>dA4F>G | A>^G A>d (3fed (3a=gf | e6F>G |
A>^G A>d f>e d>a | g>eB4e>d | c>g g>c (3A^GA B2c | d2f2d2:|
c>d|e2a2f2a2 | e>f e>dc2e2 | d>e d>cB2f2 | e>f e>dc2c>d |
e2a2f2a2 | e>f e>d c2e2 | f>a g>f e>d c>B | A2a2a2:|
z2|d4-d>^c d>g | B4B>^A B>d | c>B A>Bc2f2 | e>d G>AB2d2 |
d4-d>^c d>g | B4B>d ^c>B | A>f e>d ^c>g f>e | d2d2d2z2 ||
d4-d>d d>g | B4-BA Bd | c>B A>Bc2f2 | e>d G>AB2d2 |
d4-d>^c d<g | e4e>g f>e | d>^ce>d =c>F B>A | G2g2g2z2:|
% abcbook-tune_id 6342d53ab688c6a3e6e1ef34


% abcbook-boost 0
% abcbook-tablature 
% abcbook-transpose 
% abcbook-lastupdated 1665324354336
% abcbook-soundfonts 
% abcbook-repeats 1
% NFF Book 2022
% Bush Traditions recording played by Ray Mulligan

